;FLAVOR:Marlin
;TIME:3758
;Filament used: 3.83613m
;Layer height: 0.21
;Generated with Cura_SteamEngine 3.6.0
M140 S65
M105
M190 S65
M104 S230
M105
M109 S230
M82 ;absolute extrusion mode
;Calibration part starts here
;M92 X57.14 Y57.14 Z57.14 ; If running V37-V41 or V45, uncomment this line and delete the one below
;M92 X114 Y114 Z114 ; If running V43 or V44, uncomment this line and delete the one above
M92 X114 Y114  Z114 E101.4
M666 X0 Y0 Z-0.2; Add your endstop values here after calibration
M665 L120.80 R62.7 S500.00; Sets default Delta Radius (change when calibrating)
;R61.70 is default
;R63.5 is too much
M301 P45.00 I0.07 D1000 ; Hot end settings
M304 P100 I0 D0 ; Bed heater settings
M500 ; Save settings
; Calibration part ends here

G90 ; switch to absolute positioning
G92 E0 ; reset extrusion distance
G1 E20 F200 ; purge 20mm of filament to prime nozzle.
G92 E0 ; reset extrusion distance
G4 S5 ; Pause for 5 seconds to allow time for removing extruded filament
G28 ; start from home position
G1 E-6 F900 ; retract 6mm of filament before starting the bed leveling process
G92 E0 ; reset extrusion distance
G4 S5 ; pause for 5 seconds to allow time for removing extruded filament
;G29 P4 Z0.28 ; Auto-level ; ADJUST Z higher or lower to set first layer height. Start with 0.02 adjustments.
G29 P2 Z0.3
G1 Z30 ; raise Z 30mm to prepare for priming the nozzle
G1 E5 F200 ; extrude 5mm of filament to help prime the nozzle just prior to the start of the print
G92 E0 ; reset extrusion distance
G4 S5 ; pause for 5 seconds to allow time for cleaning the nozzle and build plate if needed
G92 E0
G1 F3000 E-4
;LAYER_COUNT:250
;LAYER:0
M106 S255
G0 F3600 X-22.5 Y3.158 Z0.21
;TYPE:SUPPORT
G1 F3000 E0
G1 F2400 X-22.593 Y3.436 E0.00896
G1 X-22.656 Y3.992 E0.02606
G1 X-22.6 Y4.547 E0.0431
G1 X-22.433 Y5.072 E0.05994
G1 X-22.201 Y5.481 E0.07431
G1 X-22.525 Y5.12 E0.08913
G1 X-22.882 Y4.014 E0.12464
G1 X-22.82 Y3.43 E0.14259
G1 X-22.734 Y3.158 E0.15131
G1 X-22.5 Y3.158 E0.15846
G1 F3000 E-3.84154
;MESH:MMDP_corners.stl
G0 F3600 X-20.892 Y3.69
G0 X-18.775 Y4.275
;TYPE:WALL-INNER
G1 F3000 E0.15846
G1 F2400 X-20.025 Y4.275 E0.19665
G1 X-20.084 Y4.263 E0.19849
G1 X-20.161 Y4.22 E0.20119
G1 X-20.174 Y4.213 E0.20164
G1 X-20.221 Y4.162 E0.20376
G1 X-20.242 Y4.124 E0.20509
G1 X-20.263 Y4.06 E0.20714
G1 X-20.268 Y4.007 E0.20877
G1 X-20.263 Y3.952 E0.21046
G1 X-20.246 Y3.901 E0.2121
G1 X-20.239 Y3.888 E0.21255
G1 X-20.217 Y3.851 E0.21387
G1 X-20.178 Y3.807 E0.21566
G1 X-20.136 Y3.777 E0.21724
G1 X-20.082 Y3.753 E0.21905
G1 X-20.026 Y3.741 E0.2208
G1 X22.633 Y3.733 E1.52436
G1 X22.808 Y3.733 E1.52971
G1 X22.808 Y3.908 E1.53317
G1 X22.808 Y4.283 E1.54463
G1 X-18.775 Y4.283 E2.81531
G1 X-18.775 Y4.275 E2.81556
G0 F3600 X-19.125 Y4.625
G1 F2400 X-20.062 Y4.625 E2.84419
G1 X-20.192 Y4.598 E2.84825
G1 X-20.314 Y4.543 E2.85233
G1 X-20.412 Y4.472 E2.85603
G1 X-20.506 Y4.369 E2.86029
G1 X-20.564 Y4.266 E2.86391
G1 X-20.607 Y4.134 E2.86815
G1 X-20.62 Y4.008 E2.87202
G1 X-20.607 Y3.879 E2.87598
G1 X-20.566 Y3.755 E2.87997
G1 X-20.504 Y3.647 E2.88378
G1 X-20.412 Y3.544 E2.888
G1 X-20.312 Y3.472 E2.89176
G1 X-20.193 Y3.419 E2.89574
G1 X-20.062 Y3.391 E2.89984
G1 X22.983 Y3.383 E4.2152
G1 X23.158 Y3.383 E4.22054
G1 X23.158 Y3.558 E4.224
G1 X23.158 Y4.633 E4.25685
G1 X-19.125 Y4.633 E5.54893
G1 X-19.125 Y4.625 E5.54917
G0 F3600 X-19.475 Y4.975
G1 F2400 X-20.101 Y4.975 E5.5683
G1 X-20.297 Y4.934 E5.57442
G1 X-20.493 Y4.846 E5.58098
G1 X-20.648 Y4.734 E5.58683
G1 X-20.789 Y4.578 E5.59325
G1 X-20.887 Y4.406 E5.5993
G1 X-20.951 Y4.21 E5.6056
G1 X-20.972 Y4.008 E5.61181
G1 X-20.951 Y3.806 E5.61801
G1 X-20.887 Y3.612 E5.62426
G1 X-20.788 Y3.438 E5.63037
G1 X-20.649 Y3.284 E5.63671
G1 X-20.488 Y3.167 E5.6428
G1 X-20.304 Y3.085 E5.64895
G1 X-20.097 Y3.041 E5.65542
G1 X23.333 Y3.033 E6.98254
G1 X23.508 Y3.033 E6.98789
G1 X23.508 Y3.208 E6.99135
G1 X23.508 Y4.983 E7.04559
G1 X-19.475 Y4.983 E8.35905
G1 X-19.475 Y4.975 E8.3593
G0 F3600 X-19.8 Y5.3
;TYPE:WALL-OUTER
G1 F2400 X-20.135 Y5.3 E8.36953
G1 X-20.4 Y5.244 E8.37781
G1 X-20.652 Y5.131 E8.38625
G1 X-20.868 Y4.975 E8.39439
G1 X-21.053 Y4.77 E8.40283
G1 X-21.186 Y4.537 E8.41103
G1 X-21.27 Y4.279 E8.41932
G1 X-21.299 Y4.008 E8.42765
G1 X-21.27 Y3.737 E8.43598
G1 X-21.186 Y3.479 E8.44427
G1 X-21.053 Y3.247 E8.45244
G1 X-20.867 Y3.041 E8.46092
G1 X-20.651 Y2.884 E8.46908
G1 X-20.403 Y2.774 E8.47737
G1 X-20.134 Y2.716 E8.48578
G1 X23.658 Y2.708 E9.82397
G1 X23.833 Y2.708 E9.82931
G1 X23.833 Y2.883 E9.83277
G1 X23.833 Y5.308 E9.90688
G1 X-19.8 Y5.308 E11.2402
G1 X-19.8 Y5.3 E11.24045
G0 F3600 X-20 Y5.3
G0 X-20 Y4.875
G0 X-19.903 Y4.102
G0 X-19.984 Y4.021
;TYPE:SKIN
G1 F2400 X-19.751 Y4.007 E11.24455
G1 X-14.55 Y4.01 E11.33592
G1 X-1.929 Y4.009 E11.55765
G1 X10.69 Y4.008 E11.77935
G1 X22.322 Y4.008 E11.98371
G1 X22.551 Y3.989 E11.98774
G0 F3600 X22.635 Y4.073
G1 F3000 E7.98774
G0 F3600 X-15.515 Y3.041
G0 X-15.515 Y1.463
G0 X-15.516 Y-5.133
;TYPE:WALL-INNER
G1 F3000 E11.98774
G1 F2400 X-15.519 Y-5.098 E11.98882
G1 X-15.584 Y-4.492 E12.00744
G1 X-15.516 Y-3.851 E12.02714
G1 X-15.319 Y-3.238 E12.04681
G1 X-14.997 Y-2.679 E12.06653
G1 X-14.561 Y-2.198 E12.08637
G1 X-14.042 Y-1.821 E12.10597
G1 X-13.454 Y-1.558 E12.12565
G1 X-12.823 Y-1.425 E12.14536
G1 X-12.177 Y-1.425 E12.1651
G1 X-11.546 Y-1.558 E12.1848
G1 X-10.958 Y-1.821 E12.20449
G1 X-10.439 Y-2.198 E12.22409
G1 X-10.003 Y-2.679 E12.24393
G1 X-9.681 Y-3.238 E12.26364
G1 X-9.484 Y-3.851 E12.28331
G1 X-9.416 Y-4.492 E12.30301
G1 X-9.481 Y-5.098 E12.32164
G1 X-9.484 Y-5.133 E12.32271
G1 X-9.576 Y-5.417 E12.33183
G1 X-9.484 Y-5.417
G1 X-9.448 Y-5.417 E12.33286
G1 X24.214 Y-5.417 E13.36149
G1 X24.215 Y0.258 E13.53491
G1 X24.215 Y0.433 E13.54025
G1 X24.04 Y0.433 E13.54372
G1 X-22.425 Y0.433 E14.96358
G1 X-22.425 Y-5.417 E15.14234
G1 X-15.552 Y-5.417 E15.35237
G1 X-15.516 Y-5.417 E15.35339
G1 X-15.424 Y-5.417 E15.3562
G1 X-15.516 Y-5.133 E15.36225
G0 F3600 X-22.775 Y-3.217
G1 F2400 X-24.775 Y-3.217 E15.42337
G1 X-24.775 Y-3.267 E15.4249
G1 X-22.775 Y-3.267 E15.43363
G1 X-22.775 Y-5.767 E15.51002
G1 X-15.123 Y-5.767 E15.74385
G1 X-14.995 Y-5.767 E15.74776
G1 X-14.901 Y-5.767 E15.75063
G1 X-14.995 Y-5.603 E15.75349
G1 X-15.034 Y-5.482 E15.75654
G1 X-15.172 Y-5.06 E15.77011
G1 X-15.232 Y-4.492 E15.78756
G1 X-15.172 Y-3.924 E15.80502
G1 X-14.997 Y-3.381 E15.82245
G1 X-14.712 Y-2.886 E15.8399
G1 X-14.326 Y-2.46 E15.85747
G1 X-13.866 Y-2.126 E15.87484
G1 X-13.345 Y-1.893 E15.89228
G1 X-12.786 Y-1.775 E15.90974
G1 X-12.214 Y-1.775 E15.92722
G1 X-11.655 Y-1.893 E15.94468
G1 X-11.134 Y-2.126 E15.96212
G1 X-10.674 Y-2.46 E15.97949
G1 X-10.288 Y-2.886 E15.99706
G1 X-10.003 Y-3.381 E16.01451
G1 X-9.828 Y-3.924 E16.03194
G1 X-9.768 Y-4.492 E16.0494
G1 X-9.828 Y-5.06 E16.06685
G1 X-9.966 Y-5.482 E16.08042
G1 X-10.005 Y-5.603 E16.0843
G1 X-10.099 Y-5.767 E16.09008
G1 X-10.005 Y-5.767
G1 X-9.877 Y-5.767 E16.09315
G1 X24.564 Y-5.767 E17.14559
G1 X24.565 Y0.608 E17.3404
G1 X24.565 Y0.783 E17.34575
G1 X24.39 Y0.783 E17.34921
G1 X-22.775 Y0.783 E18.79046
G1 X-22.775 Y-3.217 E18.91269
G0 F3600 X-23.125 Y-2.867
G1 F2400 X-25.125 Y-2.867 E18.97381
G1 X-25.125 Y-3.617 E18.99673
G1 X-23.125 Y-3.617 E19.05784
G1 X-23.125 Y-6.117 E19.13424
G1 X-14.532 Y-6.117 E19.39682
G1 X-14.426 Y-6.117 E19.40006
G1 X-14.222 Y-6.117 E19.40629
G1 X-14.426 Y-5.89 E19.4108
G1 X-14.479 Y-5.799 E19.41353
G1 X-14.674 Y-5.46 E19.42548
G1 X-14.828 Y-4.987 E19.44068
G1 X-14.88 Y-4.492 E19.45589
G1 X-14.828 Y-3.997 E19.4711
G1 X-14.675 Y-3.524 E19.48629
G1 X-14.427 Y-3.093 E19.50149
G1 X-14.091 Y-2.722 E19.51678
G1 X-13.69 Y-2.431 E19.53192
G1 X-13.236 Y-2.228 E19.54712
G1 X-12.749 Y-2.125 E19.56233
G1 X-12.251 Y-2.125 E19.57755
G1 X-11.764 Y-2.228 E19.59276
G1 X-11.31 Y-2.431 E19.60795
G1 X-10.909 Y-2.722 E19.6231
G1 X-10.573 Y-3.093 E19.63839
G1 X-10.325 Y-3.524 E19.65359
G1 X-10.172 Y-3.997 E19.66878
G1 X-10.12 Y-4.492 E19.68399
G1 X-10.172 Y-4.987 E19.6992
G1 X-10.326 Y-5.46 E19.7144
G1 X-10.521 Y-5.799 E19.72635
G1 X-10.574 Y-5.89 E19.72956
G1 X-10.778 Y-6.117 E19.73889
G1 X-10.574 Y-6.117 E19.74031
G1 X-10.468 Y-6.117 E19.74306
G1 X24.914 Y-6.117 E20.82426
G1 X24.915 Y0.958 E21.04045
G1 X24.915 Y1.133 E21.0458
G1 X24.74 Y1.133 E21.04926
G1 X-23.125 Y1.133 E22.51191
G1 X-23.125 Y-2.867 E22.63414
G0 F3600 X-23.475 Y-2.517
G1 F2400 X-25.475 Y-2.517 E22.69525
G1 X-25.475 Y-3.967 E22.73956
G1 X-23.475 Y-3.967 E22.80068
G1 X-23.475 Y-6.467 E22.87707
G1 X-13.715 Y-6.467 E23.17532
G1 X-13.514 Y-6.467 E23.18146
G1 X-13.127 Y-6.467 E23.19328
G1 X-12.908 Y-6.467 E23.19998
G1 X-13.127 Y-6.42 E23.20052
G1 X-13.514 Y-6.248 E23.20595
G1 X-13.676 Y-6.13 E23.21098
G1 X-13.858 Y-5.998 E23.21785
G1 X-14.141 Y-5.683 E23.23079
G1 X-14.353 Y-5.317 E23.24372
G1 X-14.484 Y-4.914 E23.25667
G1 X-14.528 Y-4.492 E23.26963
G1 X-14.484 Y-4.07 E23.2826
G1 X-14.353 Y-3.667 E23.29555
G1 X-14.142 Y-3.3 E23.30848
G1 X-13.856 Y-2.984 E23.32151
G1 X-13.514 Y-2.736 E23.33442
G1 X-13.127 Y-2.563 E23.34737
G1 X-12.712 Y-2.475 E23.36033
G1 X-12.288 Y-2.475 E23.37329
G1 X-11.873 Y-2.563 E23.38625
G1 X-11.486 Y-2.736 E23.39921
G1 X-11.144 Y-2.984 E23.41212
G1 X-10.858 Y-3.3 E23.42514
G1 X-10.647 Y-3.667 E23.43808
G1 X-10.516 Y-4.07 E23.45103
G1 X-10.472 Y-4.492 E23.46399
G1 X-10.516 Y-4.914 E23.47696
G1 X-10.647 Y-5.317 E23.4899
G1 X-10.859 Y-5.683 E23.50283
G1 X-11.142 Y-5.998 E23.51577
G1 X-11.324 Y-6.13 E23.52264
G1 X-11.486 Y-6.248 E23.52876
G1 X-11.873 Y-6.42 E23.54171
G1 X-12.092 Y-6.467 E23.54855
G1 X-11.873 Y-6.467 E23.54897
G1 X-11.486 Y-6.467 E23.55329
G1 X-11.285 Y-6.467 E23.55835
G1 X25.264 Y-6.467 E24.6752
G1 X25.265 Y1.308 E24.91279
G1 X25.265 Y1.483 E24.91814
G1 X25.09 Y1.483 E24.9216
G1 X-23.475 Y1.483 E26.40563
G1 X-23.475 Y-2.517 E26.52786
G0 F3600 X-23.8 Y-2.192
;TYPE:WALL-OUTER
G1 F2400 X-25.8 Y-2.192 E26.58898
G1 X-25.8 Y-4.292 E26.65315
G1 X-23.8 Y-4.292 E26.71427
G1 X-23.8 Y-6.792 E26.79066
G1 X25.589 Y-6.792 E28.29988
G1 X25.59 Y1.633 E28.55733
G1 X25.59 Y1.808 E28.56267
G1 X25.415 Y1.808 E28.56614
G1 X-23.8 Y1.808 E30.07004
G1 X-23.8 Y-2.192 E30.19227
G0 F3600 X-24 Y-2.192
G0 X-24 Y-2.617
G0 X-13.597 Y-6.31
G0 X-13.351 Y-5.965
G1 F2400 X-13.639 Y-5.755 E30.20316
G1 X-13.877 Y-5.491 E30.21402
G1 X-14.054 Y-5.184 E30.22485
G1 X-14.164 Y-4.846 E30.23571
G1 X-14.201 Y-4.492 E30.24659
G1 X-14.164 Y-4.138 E30.25746
G1 X-14.054 Y-3.8 E30.26832
G1 X-13.877 Y-3.492 E30.27918
G1 X-13.638 Y-3.227 E30.29008
G1 X-13.351 Y-3.019 E30.30092
G1 X-13.026 Y-2.874 E30.31179
G1 X-12.678 Y-2.8 E30.32266
G1 X-12.322 Y-2.8 E30.33354
G1 X-11.974 Y-2.874 E30.34441
G1 X-11.649 Y-3.019 E30.35529
G1 X-11.362 Y-3.227 E30.36612
G1 X-11.123 Y-3.492 E30.37702
G1 X-10.946 Y-3.8 E30.38788
G1 X-10.836 Y-4.138 E30.39874
G1 X-10.799 Y-4.492 E30.40962
G1 X-10.836 Y-4.846 E30.42049
G1 X-10.946 Y-5.184 E30.43135
G1 X-11.123 Y-5.491 E30.44218
G1 X-11.361 Y-5.755 E30.45305
G1 X-11.649 Y-5.965 E30.46394
G1 X-11.974 Y-6.109 E30.4748
G1 X-12.322 Y-6.184 E30.48568
G1 X-12.678 Y-6.184 E30.49656
G1 X-13.026 Y-6.109 E30.50743
G1 X-13.351 Y-5.965 E30.5183
G0 F3600 X-13.512 Y-5.848
G0 X-13.759 Y-6.193
G0 X-15.864 Y-5.077
;TYPE:SKIN
G1 F2400 X-15.926 Y-4.492 E30.53627
G1 X-15.85 Y-3.781 E30.55812
G1 X-15.632 Y-3.1 E30.57997
G1 X-15.273 Y-2.477 E30.60195
G1 X-14.789 Y-1.944 E30.62395
G1 X-14.213 Y-1.525 E30.64571
G1 X-13.559 Y-1.233 E30.6676
G1 X-12.858 Y-1.085 E30.68949
G1 X-12.142 Y-1.085 E30.71137
G1 X-11.441 Y-1.233 E30.73326
G1 X-10.787 Y-1.525 E30.75515
G1 X-10.211 Y-1.944 E30.77692
G1 X-9.727 Y-2.477 E30.79892
G1 X-9.368 Y-3.1 E30.82089
G1 X-9.15 Y-3.781 E30.84274
G1 X-9.074 Y-4.492 E30.86459
G1 X-9.136 Y-5.077 E30.88256
G1 X23.874 Y-5.077 E31.89128
G1 X23.875 Y0.093 E32.04926
G1 X-22.085 Y0.093 E33.45369
G1 X-22.085 Y-5.077 E33.61168
G1 X-15.864 Y-5.077 E33.80178
G0 F3600 X-21.927 Y-.148
G1 F2400 X-21.843 Y-0.064 E33.80541
G0 F3600 X-21.348 Y-0.064
G1 F2400 X-21.927 Y-.643 E33.83043
G0 F3600 X-21.927 Y-1.138
G1 F2400 X-20.853 Y-0.064 E33.87684
G0 F3600 X-20.358 Y-0.064
G1 F2400 X-21.927 Y-1.633 E33.94465
G0 F3600 X-21.927 Y-2.128
G1 F2400 X-19.863 Y-0.064 E34.03384
G0 F3600 X-19.368 Y-0.064
G1 F2400 X-21.927 Y-2.623 E34.14443
G0 F3600 X-21.927 Y-3.118
G1 F2400 X-18.873 Y-0.064 E34.27641
G0 F3600 X-18.378 Y-0.064
G1 F2400 X-21.927 Y-3.613 E34.42978
G0 F3600 X-21.927 Y-4.108
G1 F2400 X-17.883 Y-0.064 E34.60454
G0 F3600 X-17.388 Y-0.064
G1 F2400 X-21.927 Y-4.603 E34.8007
G0 F3600 X-21.749 Y-4.92
G1 F2400 X-16.893 Y-0.064 E35.01055
G0 F3600 X-16.398 Y-0.064
G1 F2400 X-21.254 Y-4.92 E35.2204
G0 F3600 X-20.759 Y-4.92
G1 F2400 X-15.903 Y-0.064 E35.43025
G0 F3600 X-15.408 Y-0.064
G1 F2400 X-20.264 Y-4.92 E35.64011
G0 F3600 X-19.769 Y-4.92
G1 F2400 X-14.913 Y-0.064 E35.84996
G0 F3600 X-14.418 Y-0.064
G1 F2400 X-19.274 Y-4.92 E36.05981
G0 F3600 X-18.779 Y-4.92
G1 F2400 X-13.923 Y-0.064 E36.26967
G0 F3600 X-13.428 Y-0.064
G1 F2400 X-18.284 Y-4.92 E36.47952
G0 F3600 X-17.789 Y-4.92
G1 F2400 X-15.597 Y-2.728 E36.57425
G1 X-15.535 Y-2.666
G0 F3600 X-15.948 Y-3.573
G1 F2400 X-17.294 Y-4.92 E36.63244
G0 F3600 X-16.799 Y-4.92
G1 F2400 X-16.049 Y-4.169 E36.66487
G0 F3600 X-16.063 Y-4.678
G1 F2400 X-16.304 Y-4.92 E36.67531
G0 F3600 X-14.229 Y-1.36
G1 F2400 X-12.933 Y-0.064 E36.73131
G0 F3600 X-12.438 Y-0.064
G1 F2400 X-13.418 Y-1.043 E36.77364
G0 F3600 X-12.807 Y-.927
G1 F2400 X-11.943 Y-0.064 E36.81096
G0 F3600 X-11.448 Y-0.064
G1 F2400 X-12.312 Y-.927 E36.84827
G0 F3600 X-11.87 Y-.981
G1 F2400 X-10.953 Y-0.064 E36.8879
G0 F3600 X-10.458 Y-0.064
G1 F2400 X-11.462 Y-1.068 E36.93129
G0 F3600 X-11.107 Y-1.208
G1 F2400 X-9.963 Y-0.064 E36.98073
G0 F3600 X-9.468 Y-0.064
G1 F2400 X-10.765 Y-1.361 E37.03678
G0 F3600 X-10.47 Y-1.56
G1 F2400 X-8.973 Y-0.064 E37.10145
G0 F3600 X-8.478 Y-0.064
G1 F2400 X-10.183 Y-1.769 E37.17513
G0 F3600 X-9.934 Y-2.015
G1 F2400 X-7.983 Y-0.064 E37.25945
G0 F3600 X-7.488 Y-0.064
G1 F2400 X-9.698 Y-2.274 E37.35495
G0 F3600 X-9.495 Y-2.565
G1 F2400 X-6.993 Y-0.064 E37.46305
G0 F3600 X-6.499 Y-0.064
G1 F2400 X-9.314 Y-2.879 E37.5847
G0 F3600 X-9.163 Y-3.223
G1 F2400 X-6.004 Y-0.064 E37.72122
G0 F3600 X-5.509 Y-0.064
G1 F2400 X-9.043 Y-3.598 E37.87394
G0 F3600 X-8.966 Y-4.017
G1 F2400 X-5.014 Y-0.064 E38.04475
G0 F3600 X-4.519 Y-0.064
G1 F2400 X-8.918 Y-4.463 E38.23486
G0 F3600 X-8.879 Y-4.92
G1 F2400 X-4.024 Y-0.064 E38.44469
G0 F3600 X-3.529 Y-0.064
G1 F2400 X-8.384 Y-4.92 E38.65452
G0 F3600 X-7.889 Y-4.92
G1 F2400 X-3.034 Y-0.064 E38.86435
G0 F3600 X-2.539 Y-0.064
G1 F2400 X-7.394 Y-4.92 E39.07418
G0 F3600 X-6.899 Y-4.92
G1 F2400 X-2.044 Y-0.064 E39.28401
G0 F3600 X-1.549 Y-0.064
G1 F2400 X-6.404 Y-4.92 E39.49384
G0 F3600 X-5.909 Y-4.92
G1 F2400 X-1.054 Y-0.064 E39.70367
G0 F3600 X-.559 Y-0.064
G1 F2400 X-5.415 Y-4.92 E39.91353
G0 F3600 X-4.92 Y-4.92
G1 F2400 X-0.064 Y-0.064 E40.12338
G0 F3600 X0.43 Y-0.064
G1 F2400 X-4.425 Y-4.92 E40.33321
G0 F3600 X-3.93 Y-4.92
G1 F2400 X0.925 Y-0.064 E40.54304
G0 F3600 X1.42 Y-0.064
G1 F2400 X-3.435 Y-4.92 E40.75287
G0 F3600 X-2.94 Y-4.92
G1 F2400 X1.915 Y-0.064 E40.96271
G0 F3600 X2.41 Y-0.064
G1 F2400 X-2.445 Y-4.92 E41.17254
G0 F3600 X-1.95 Y-4.92
G1 F2400 X2.905 Y-0.064 E41.38237
G0 F3600 X3.4 Y-0.064
G1 F2400 X-1.455 Y-4.92 E41.5922
G0 F3600 X-.96 Y-4.92
G1 F2400 X3.895 Y-0.064 E41.80203
G0 F3600 X4.39 Y-0.064
G1 F2400 X-.465 Y-4.92 E42.01186
G0 F3600 X0.029 Y-4.92
G1 F2400 X4.885 Y-0.064 E42.22172
G0 F3600 X5.38 Y-0.064
G1 F2400 X0.524 Y-4.92 E42.43157
G0 F3600 X1.019 Y-4.92
G1 F2400 X5.875 Y-0.064 E42.64142
G0 F3600 X6.37 Y-0.064
G1 F2400 X1.514 Y-4.92 E42.85127
G0 F3600 X2.009 Y-4.92
G1 F2400 X6.865 Y-0.064 E43.06113
G0 F3600 X7.36 Y-0.064
G1 F2400 X2.504 Y-4.92 E43.27098
G0 F3600 X2.999 Y-4.92
G1 F2400 X7.855 Y-0.064 E43.48083
G0 F3600 X8.35 Y-0.064
G1 F2400 X3.494 Y-4.92 E43.69069
G0 F3600 X3.989 Y-4.92
G1 F2400 X8.845 Y-0.064 E43.90054
G0 F3600 X9.34 Y-0.064
G1 F2400 X4.484 Y-4.92 E44.11039
G0 F3600 X4.979 Y-4.92
G1 F2400 X9.835 Y-0.064 E44.32024
G0 F3600 X10.33 Y-0.064
G1 F2400 X5.474 Y-4.92 E44.5301
G0 F3600 X5.969 Y-4.92
G1 F2400 X10.825 Y-0.064 E44.73995
G0 F3600 X11.32 Y-0.064
G1 F2400 X6.464 Y-4.92 E44.9498
